X:1
T:Title
%%score { ( 1 4 5 ) | ( 2 3 ) }
L:1/8
M:6/8
K:Ab
V:1 treble nm="Grand Piano"
V:4 treble 
V:5 treble 
V:2 bass 
V:3 bass 
V:1
 z3 z2[Q:1/4=90] [CE] | [CE][CE][CE] [CE][DF][CE] | [Ec]2 [CA] [DF]2 [FB] | [EG]GG GF[G,DE] | A6 | %5
 [CE][CE][CE] [CE][DF][CE] | [Ec]2 [CA] [DF]2 [FB] | GGG GFE | [CA]6 | BBB BAB | [Ec]2 [Ec] .B3 | %11
 BBB BAB | [Ec]2 [Ec] .[EB]3 | [CE][CE][CE] [CE][DF][CE] | [Ec]2 [CA] [DF]2 [FB] | GGG GFE | %16
 A3 z3 | .B6 | [Ec]2 [DB] .[CA]3 | .[FA]6 | [DF]2 [CE] .[CE]3 | [CE][CE][CE] [DE][DE][DE] | %22
 E2 E F2 [FB] | AAA c2 B | [CA]6 |] %25
V:2
 z3 z2 [A,,A,] | [A,,A,][A,,A,][A,,A,] [A,,A,][A,,A,][A,,A,] | [A,,A,]2 [A,,A,] [D,A,]2 [D,D] | %3
 z3 .B,3 | z2 B, C2 [A,,A,] | [A,,A,][A,,A,][A,,A,] [A,,A,][A,,A,][A,,A,] | %6
 [A,,A,]2 [A,,A,] [D,A,]2 [D,D] | [E,B,E][E,B,E][E,B,E] B,A,[E,G,D] | [A,,A,]6 | %9
 [E,G,E][E,G,E][E,G,E] [E,E]-[E,F,E][E,G,E] | [A,,A,]2 [C,A,] .[E,G,E]3 | %11
 [E,G,E][E,G,E][E,G,E] [E,G,E][E,F,E][E,G,E] | [A,,A,]2 [C,A,] .[E,G,]3 | %13
 [A,,A,][A,,A,][A,,A,] [A,,A,][A,,A,][A,,A,] | [A,,A,]2 [A,,A,] [D,A,]2 [D,D] | %15
 [E,B,E][E,B,E][E,B,E] B,A,[E,G,D] | [A,,A,]6 | [E,G,E][E,G,][E,G,] E,-[E,A,][E,B,E] | %18
 [A,,A,]2 [A,,A,] .[A,,A,]3 | [D,A,]D,D, z E[D,A,D] | [A,,A,]2 [A,,A,] .[A,,A,]3 | %21
 [A,,A,][A,,A,][A,,A,] [B,,G,][B,,G,][B,,G,] | [C,A,]2 [C,A,] [D,A,D]2 [D,D] | %23
 [E,CE][E,CE][E,CE] [E,A,E]2 [E,G,D] | [A,,A,]6 |] %25
V:3
 x6 | x6 | x6 | [D,B,][E,B,E][E,B,E] [E,D]-[E,A,D]E, | A,,6 | x6 | x6 | z3 .[E,D]3 | x6 | z3 .G,3 | %10
 x6 | x6 | x6 | x6 | x6 | z3 .[E,D]3 | x6 | z3 .G,3 | x6 | z3 .D,3 | x6 | x6 | x6 | x6 | x6 |] %25
V:4
 x6 | x6 | x6 | x6 | [A,C]2 D E2 [CE] | x6 | x6 | x6 | x6 | x6 | x6 | x6 | x6 | x6 | x6 | x6 | C6 | %17
 z EE z cd | x6 | z A,A, z GF | x6 | x6 | x6 | x6 | x6 |] %25
V:5
 x6 | x6 | x6 | x6 | x6 | x6 | x6 | x6 | x6 | x6 | x6 | x6 | x6 | x6 | x6 | x6 | x6 | z3 .E3 | x6 | %19
 z3 .A,3 | x6 | x6 | x6 | x6 | x6 |] %25

